assets/img/podcast/listen/spotify.svg

<svg xmlns="http://www.w3.org/2000/svg" width="100" height="30" fill="none" viewBox="0 0 100 30"><rect width="100" height="30" fill="#fff"/><rect width="100" height="30" fill="#1ED760"/><path fill="#fff" d="M15 5.00001C13.0222 5.00001 11.0888 5.5865 9.4443 6.68531C7.79981 7.78412 6.51808 9.34591 5.76121 11.1732C5.00433 13.0004 4.8063 15.0111 5.19215 16.9509C5.578 18.8907 6.53041 20.6725 7.92893 22.0711C9.32746 23.4696 11.1093 24.422 13.0491 24.8078C14.9889 25.1937 16.9996 24.9957 18.8268 24.2388C20.6541 23.4819 22.2159 22.2002 23.3147 20.5557C24.4135 18.9112 25 16.9778 25 15C25.0016 13.6863 24.744 12.3853 24.242 11.1713C23.74 9.95734 23.0035 8.85432 22.0746 7.92542C21.1457 6.99652 20.0427 6.25998 18.8287 5.758C17.6147 5.25601 16.3137 4.99843 15 5.00001ZM19.5803 19.3885C19.4937 19.5275 19.3558 19.6268 19.1965 19.6649C19.0372 19.7031 18.8692 19.677 18.729 19.5923C17.4005 18.8586 15.9395 18.3959 14.4307 18.2313C12.922 18.0666 11.3956 18.2032 9.94005 18.6331C9.77951 18.669 9.61129 18.64 9.47204 18.5524C9.3328 18.4648 9.23381 18.3257 9.19664 18.1655C9.16046 18.0034 9.18913 17.8337 9.27652 17.6925C9.36392 17.5513 9.50309 17.4499 9.66427 17.4101C11.2769 16.9476 12.9649 16.8081 14.6315 16.9995C16.2982 17.1908 17.9107 17.7093 19.3765 18.5252C19.4507 18.5693 19.5151 18.628 19.5658 18.6977C19.6166 18.7675 19.6526 18.8469 19.6716 18.931C19.6907 19.0152 19.6925 19.1023 19.6768 19.1871C19.6611 19.272 19.6282 19.3527 19.5803 19.4245V19.3885ZM20.7794 16.6667C20.6705 16.8407 20.4974 16.9648 20.2976 17.012C20.0978 17.0591 19.8874 17.0255 19.7122 16.9185C16.6786 15.2214 13.0978 14.7905 9.7482 15.7194C9.64842 15.7577 9.54184 15.775 9.43507 15.7704C9.32831 15.7657 9.22365 15.7391 9.12759 15.6923C9.03153 15.6455 8.94612 15.5794 8.87669 15.4981C8.80725 15.4169 8.75526 15.3223 8.72395 15.2201C8.69263 15.1179 8.68267 15.0104 8.69467 14.9042C8.70667 14.798 8.74039 14.6954 8.79371 14.6028C8.84704 14.5102 8.91885 14.4295 9.00466 14.3659C9.09048 14.3022 9.18848 14.2568 9.29257 14.2326C11.1589 13.6943 13.1138 13.5336 15.043 13.7601C16.9721 13.9866 18.8367 14.5956 20.5276 15.5516C20.6262 15.6043 20.7126 15.6773 20.7809 15.7658C20.8493 15.8543 20.8981 15.9564 20.9241 16.0651C20.9502 16.1739 20.9529 16.2869 20.9321 16.3968C20.9113 16.5067 20.8674 16.6109 20.8034 16.7026L20.7794 16.6667ZM20.8753 13.8609C17.6499 11.9544 12.3381 11.7746 9.2566 12.6619C9.13672 12.7071 9.00883 12.7272 8.88087 12.7209C8.75291 12.7146 8.6276 12.6821 8.51271 12.6254C8.39783 12.5687 8.29581 12.489 8.213 12.3913C8.13019 12.2935 8.06835 12.1798 8.03131 12.0572C7.99427 11.9345 7.98282 11.8056 7.99768 11.6783C8.01253 11.5511 8.05337 11.4282 8.11767 11.3174C8.18196 11.2066 8.26834 11.1102 8.37144 11.0341C8.47454 10.9581 8.59217 10.904 8.71703 10.8753C12.2542 9.79617 18.1175 10.012 21.8345 12.2062C22.0476 12.3334 22.2014 12.5401 22.2621 12.7807C22.3228 13.0213 22.2855 13.2761 22.1583 13.4892C22.0311 13.7023 21.8244 13.8561 21.5838 13.9168C21.3432 13.9775 21.0884 13.9402 20.8753 13.813V13.8609Z"/><rect width="66" height="24" x="31" y="3" fill="#fff"/><path fill="#000" d="M46.8467 17.0859C46.9102 18.3652 47.9795 19.1758 49.5957 19.1758C51.3047 19.1758 52.3643 18.3213 52.3643 16.9492C52.3643 15.875 51.7637 15.2793 50.333 14.957L49.5225 14.7715C48.6484 14.5713 48.292 14.293 48.292 13.8193C48.292 13.2188 48.8291 12.8281 49.6396 12.8281C50.4111 12.8281 50.958 13.2188 51.0459 13.8389H52.252C52.1934 12.6279 51.124 11.7783 49.6445 11.7783C48.0674 11.7783 47.0225 12.6279 47.0225 13.9072C47.0225 14.957 47.623 15.5918 48.9023 15.8799L49.8154 16.0898C50.7188 16.2998 51.1045 16.5977 51.1045 17.1055C51.1045 17.6963 50.5039 18.1211 49.6738 18.1211C48.7803 18.1211 48.1553 17.7158 48.0771 17.0859H46.8467ZM56.5635 13.5703C55.8311 13.5703 55.2109 13.9365 54.9033 14.542H54.8203V13.6582H53.6533V20.7773H54.8643V18.1895H54.9473C55.2207 18.7559 55.8115 19.0879 56.5781 19.0879C57.9258 19.0879 58.7656 18.0332 58.7656 16.3291C58.7656 14.6152 57.916 13.5703 56.5635 13.5703ZM56.1826 18.0576C55.3574 18.0576 54.8447 17.3984 54.8398 16.3291C54.8447 15.2646 55.3623 14.6006 56.1875 14.6006C57.0176 14.6006 57.5205 15.25 57.5205 16.3291C57.5205 17.4082 57.0225 18.0576 56.1826 18.0576ZM62.2861 19.1074C63.8828 19.1074 64.8545 18.0625 64.8545 16.3291C64.8545 14.6006 63.8779 13.5508 62.2861 13.5508C60.6992 13.5508 59.7178 14.6055 59.7178 16.3291C59.7178 18.0625 60.6846 19.1074 62.2861 19.1074ZM62.2861 18.0918C61.4414 18.0918 60.958 17.4473 60.958 16.3291C60.958 15.2158 61.4414 14.5664 62.2861 14.5664C63.126 14.5664 63.6094 15.2158 63.6094 16.3291C63.6094 17.4473 63.1309 18.0918 62.2861 18.0918ZM66.4609 12.3496V13.6924H65.6162V14.6592H66.4609V17.5742C66.4609 18.6094 66.9492 19.0244 68.1748 19.0244C68.4092 19.0244 68.6338 19 68.8096 18.9658V18.0186C68.6631 18.0332 68.5703 18.043 68.3994 18.043C67.8916 18.043 67.667 17.8086 67.667 17.2812V14.6592H68.8096V13.6924H67.667V12.3496H66.4609ZM70.0352 19H71.2412V13.6582H70.0352V19ZM70.6357 12.7891C71.0801 12.7891 71.3828 12.5059 71.3828 12.1201C71.3828 11.7344 71.0801 11.4512 70.6357 11.4512C70.1963 11.4512 69.8887 11.7344 69.8887 12.1201C69.8887 12.5059 70.1963 12.7891 70.6357 12.7891ZM73.1357 19H74.3418V14.6592H75.4893V13.6924H74.3271V13.209C74.3271 12.7061 74.5518 12.457 75.123 12.457C75.2939 12.457 75.4404 12.4668 75.5381 12.4814V11.5928C75.3428 11.5586 75.123 11.5391 74.8643 11.5391C73.6777 11.5391 73.1357 12.0713 73.1357 13.1309V13.6924H72.2617V14.6592H73.1357V19ZM77.2471 20.9385C78.4434 20.9385 79.0146 20.499 79.4688 19.1709L81.3975 13.6582H80.1182L78.873 17.8281H78.79L77.54 13.6582H76.2119L78.1211 19.0244L78.0576 19.2588C77.9014 19.752 77.6133 19.9473 77.1006 19.9473C77.0176 19.9473 76.8369 19.9424 76.7686 19.9277V20.9189C76.8467 20.9336 77.1738 20.9385 77.2471 20.9385Z"/></svg>

<svg xmlns="http://www.w3.org/2000/svg" width="100" height="30" fill="none"><path fill="#fff" d="M0 0H100V30H0z"/><path fill="#1ED760" d="M0 0H100V30H0z"/><path fill="#fff" d="M15 5a10 10 0 1 0 10 10A9.987 9.987 0 0 0 15 5zm4.58 14.389a.623.623 0 0 1-.851.203 11.462 11.462 0 0 0-8.789-.959.623.623 0 0 1-.663-.94.635.635 0 0 1 .387-.283 12.744 12.744 0 0 1 9.713 1.115.636.636 0 0 1 .203.9v-.037zm1.2-2.722a.78.78 0 0 1-1.068.252 13.19 13.19 0 0 0-9.964-1.2.78.78 0 1 1-.455-1.486 14.605 14.605 0 0 1 11.235 1.319.79.79 0 0 1 .275 1.15l-.024-.035zm.095-2.806c-3.225-1.907-8.537-2.086-11.618-1.2a.935.935 0 1 1-.54-1.786c3.537-1.079 9.4-.863 13.117 1.331a.936.936 0 0 1-.959 1.607v.048z"/><path fill="#fff" d="M31 3H97V27H31z"/><path fill="#000" d="M46.847 17.086c.063 1.28 1.133 2.09 2.749 2.09 1.709 0 2.768-.855 2.768-2.227 0-1.074-.6-1.67-2.031-1.992l-.81-.186c-.875-.2-1.231-.478-1.231-.952 0-.6.537-.99 1.348-.99.771 0 1.318.39 1.406 1.01h1.206c-.059-1.211-1.128-2.06-2.608-2.06-1.577 0-2.621.849-2.621 2.128 0 1.05.6 1.685 1.88 1.973l.912.21c.904.21 1.29.508 1.29 1.015 0 .591-.601 1.016-1.431 1.016-.894 0-1.519-.405-1.597-1.035h-1.23zm9.716-3.516c-.732 0-1.352.367-1.66.972h-.083v-.884h-1.167v7.12h1.211V18.19h.083c.274.566.864.898 1.631.898 1.348 0 2.188-1.055 2.188-2.759 0-1.714-.85-2.759-2.203-2.759zm-.38 4.488c-.826 0-1.338-.66-1.343-1.729.005-1.064.522-1.728 1.347-1.728.83 0 1.334.649 1.334 1.728 0 1.08-.498 1.729-1.338 1.729zm6.103 1.05c1.597 0 2.569-1.046 2.569-2.779 0-1.728-.977-2.778-2.569-2.778-1.587 0-2.568 1.054-2.568 2.778 0 1.733.967 2.778 2.568 2.778zm0-1.016c-.845 0-1.328-.645-1.328-1.763 0-1.113.483-1.763 1.328-1.763.84 0 1.323.65 1.323 1.763 0 1.118-.478 1.763-1.323 1.763zm4.175-5.742v1.342h-.845v.967h.845v2.915c0 1.035.488 1.45 1.714 1.45.234 0 .459-.024.635-.058v-.947c-.147.014-.24.024-.41.024-.508 0-.733-.234-.733-.762V14.66h1.143v-.967h-1.143V12.35h-1.206zM70.035 19h1.206v-5.342h-1.206V19zm.6-6.21c.445 0 .748-.284.748-.67 0-.386-.303-.669-.747-.669-.44 0-.747.283-.747.67 0 .385.307.668.747.668zm2.5 6.21h1.207v-4.34h1.147v-.968h-1.162v-.483c0-.503.225-.752.796-.752.17 0 .317.01.415.024v-.888a3.882 3.882 0 0 0-.674-.054c-1.186 0-1.728.532-1.728 1.592v.561h-.874v.967h.874V19zm4.112 1.939c1.196 0 1.768-.44 2.222-1.768l1.928-5.513h-1.279l-1.245 4.17h-.083l-1.25-4.17h-1.328l1.91 5.366-.064.235c-.157.493-.445.688-.957.688-.083 0-.264-.005-.332-.02v.992c.078.015.405.02.478.02z"/></svg>
